X: 50
T:Anne McQuarrie's Reel
M:4/4
L:1/8
C:D.A. Beaton
R:Reel
K:A
c|"A"A/A/A ec A/A/A A=g|"D"fefg "A"afec|"A"A/A/A ec A/A/A A=g|"A"feac "E
"B/B/B Bc|!
"A"A/A/A ec A/A/A A=g|"D"fefg "A"agfe|"D"fefg "A"agfe|"E"faec "A"A/A/A A
:|!
|:g|"A"a>A A/A/A "G"=g2 fg|"A"afec eAAg|"A"a>A A/A/A "G"=g2 fg|"A"afec "
E"B/B/B Bg|!
"A"a>A A/A/A "G"=g2 fg|"A"afec eAAg|"A"agfe "D"fgaf|"E"ecBc "A"A/A/A A:|
|
